static/fa/svgs/solid/anchor-circle-exclamation.svg

<svg xmlns="http://www.w3.org/2000/svg" viewBox="0 0 640 512"><!--! Font Awesome Free 6.1.1 by @fontawesome - https://fontawesome.com License - https://fontawesome.com/license/free (Icons: CC BY 4.0, Fonts: SIL OFL 1.1, Code: MIT License) Copyright 2022 Fonticons, Inc.--><path d="M352 176c17.7 0 32 14.3 32 32s-14.3 32-32 32h-32.9v208h20.1c12.6 24.7 30.8 45.1 53 62.2-7.9 1.2-16 1.8-24.2 1.8H208c-88.4 0-160-71.6-160-160v-6.1l-7.03 6.2c-9.37 10.2-24.57 10.2-33.941 0-9.372-8.5-9.372-23.7 0-33.1l56.001-56c9.37-9.3 24.57-9.3 33.94 0l55.13 56c10.2 9.4 10.2 24.6 0 33.1-8.5 10.2-23.7 10.2-33.1 0l-7-6.2v6.1c0 53 42.1 96 96 96h48V240h-32c-17.7 0-32-14.3-32-32s14.3-32 32-32h10.9C209 158.8 192 129.4 192 96c0-53.02 42.1-96 96-96 53 0 96 42.98 96 96 0 33.4-17.9 62.8-42.9 80H352zm-64.9-48c18.6 0 32-14.3 32-32 0-17.67-13.4-32-32-32-16.8 0-32 14.33-32 32 0 17.7 15.2 32 32 32zM352 368c0-79.5 64.5-144 144-144s144 64.5 144 144-64.5 144-144 144-144-64.5-144-144zm144 96c13.3 0 24-10.7 24-24s-10.7-24-24-24-24 10.7-24 24 10.7 24 24 24zm-16.9-176v80c0 8.8 8.1 16 16 16 9.7 0 16-7.2 16-16v-80c0-8.8-6.3-16-16-16-7.9 0-16 7.2-16 16z"/></svg>

<svg xmlns="http://www.w3.org/2000/svg" viewBox="0 0 640 512"><!--! Font Awesome Free 6.1.1 by @fontawesome - https://fontawesome.com License - https://fontawesome.com/license/free (Icons: CC BY 4.0, Fonts: SIL OFL 1.1, Code: MIT License) Copyright 2022 Fonticons, Inc. --><path d="M352 176C369.7 176 384 190.3 384 208C384 225.7 369.7 240 352 240H319.1V448H339.2C351.8 472.7 370 493.1 392.2 510.2C384.3 511.4 376.2 512 368 512H208C119.6 512 48 440.4 48 352V345.9L40.97 352.1C31.6 362.3 16.4 362.3 7.029 352.1C-2.343 343.6-2.343 328.4 7.029 319L63.03 263C72.4 253.7 87.6 253.7 96.97 263L152.1 319C162.3 328.4 162.3 343.6 152.1 352.1C143.6 362.3 128.4 362.3 119 352.1L112 345.9V352C112 405 154.1 448 208 448H256V240H224C206.3 240 192 225.7 192 208C192 190.3 206.3 176 224 176H234.9C209 158.8 192 129.4 192 96C192 42.98 234.1 0 288 0C341 0 384 42.98 384 96C384 129.4 366.1 158.8 341.1 176H352zM287.1 128C305.7 128 319.1 113.7 319.1 96C319.1 78.33 305.7 64 287.1 64C270.3 64 255.1 78.33 255.1 96C255.1 113.7 270.3 128 287.1 128zM352 368C352 288.5 416.5 224 496 224C575.5 224 640 288.5 640 368C640 447.5 575.5 512 496 512C416.5 512 352 447.5 352 368zM496 464C509.3 464 520 453.3 520 440C520 426.7 509.3 416 496 416C482.7 416 472 426.7 472 440C472 453.3 482.7 464 496 464zM479.1 288V368C479.1 376.8 487.2 384 495.1 384C504.8 384 511.1 376.8 511.1 368V288C511.1 279.2 504.8 272 495.1 272C487.2 272 479.1 279.2 479.1 288z"/></svg>
